src/status/22/fluxgui-panel.svg

<svg viewBox="0 0 22 22" xmlns="http://www.w3.org/2000/svg">
 <g transform="translate(0,-42)">
  <rect y=".007" width="64.17" height="63.993" rx="0" fill-opacity="0"/>
  <path transform="translate(0,42)" d="m11 2a9 9 0 0 0-9 9 9 9 0 0 0 0.01 0.326c0.306-0.453 0.719-0.998 1.189-1.433 0.975-0.902 2.303-1.676 3.949-1.942 0.409-0.066 0.831-0.1 1.264-0.099 3.028 4e-3 6.648 1.755 10.768 6.888a9 9 0 0 0 0.82-3.74 9 9 0 0 0-9-9zm-2.578 8.02c-0.333-0.01-0.647 0.01-0.938 0.06-1.164 0.186-2.101 0.736-2.818 1.399-0.701 0.651-1.905 2.226-2.086 2.689a9 9 0 0 0 8.42 5.832 9 9 0 0 0 7.02-3.387c-2.55-2.653-5.96-6.412-9.598-6.593z" fill="#2e3440"/>
 </g>
</svg>

<svg xmlns="http://www.w3.org/2000/svg" viewBox="0 0 22 22">
 <g transform="translate(0,-42)">
  <rect width="64.17" height="63.993" y="0.007" rx="0" style="fill:#bbdafd;fill-opacity:0;stroke:none"/>
  <path d="M 11 2 A 9 9 0 0 0 2 11 A 9 9 0 0 0 2.01 11.326 C 2.316 10.873 2.729 10.328 3.199 9.893 C 4.174 8.991 5.502 8.217 7.148 7.951 C 7.557 7.885 7.979 7.851 8.412 7.852 C 11.44 7.856 15.06 9.607 19.18 14.74 A 9 9 0 0 0 20 11 A 9 9 0 0 0 11 2 z M 8.422 10.02 C 8.089 10.01 7.775 10.03 7.484 10.08 C 6.32 10.266 5.383 10.816 4.666 11.479 C 3.965 12.13 2.761 13.705 2.58 14.168 A 9 9 0 0 0 11 20 A 9 9 0 0 0 18.02 16.613 C 15.47 13.96 12.06 10.201 8.422 10.02 z" transform="translate(0,42)" style="fill:#2e3440;opacity:1;fill-opacity:1;stroke:none;fill-rule:nonzero"/>
 </g>
</svg>
